core/assets/icons/news.svg

<svg width="24" height="24" viewBox="0 0 24 24" xmlns="http://www.w3.org/2000/svg"><g id="news"><path id="Vector" d="M8 20V4H20V19C20 19.2652 19.8946 19.5196 19.7071 19.7071C19.5196 19.8946 19.2652 20 19 20H8ZM5 22H19C19.7956 22 20.5587 21.6839 21.1213 21.1213C21.6839 20.5587 22 19.7956 22 19V3C22 2.73478 21.8946 2.48043 21.7071 2.29289C21.5196 2.10536 21.2652 2 21 2H7C6.73478 2 6.48043 2.10536 6.29289 2.29289C6.10536 2.48043 6 2.73478 6 3V10H2V19C2 19.7956 2.31607 20.5587 2.87868 21.1213C3.44129 21.6839 4.20435 22 5 22ZM6 12V19C6 19.2652 5.89464 19.5196 5.70711 19.7071C5.51957 19.8946 5.26522 20 5 20C4.73478 20 4.48043 19.8946 4.29289 19.7071C4.10536 19.5196 4 19.2652 4 19V12H6ZM18 6H12V12H18V6ZM16 8V10H14V8H16ZM18 13H10V15H18V13ZM18 16H10V18H18V16Z"/></g></svg>

<svg xmlns="http://www.w3.org/2000/svg" width="24" height="24" fill="none"><path fill="#191C22" d="M8 20V4h12v15a1 1 0 0 1-1 1H8Zm-3 2h14a3 3 0 0 0 3-3V3a1 1 0 0 0-1-1H7a1 1 0 0 0-1 1v7H2v9a3 3 0 0 0 3 3Zm1-10v7a1 1 0 1 1-2 0v-7h2Zm12-6h-6v6h6V6Zm-2 2v2h-2V8h2Zm2 5h-8v2h8v-2Zm0 3h-8v2h8v-2Z"/></svg>
